coreui/free/cil-view-column.svg

<svg viewBox="0 0 512 512" xmlns="http://www.w3.org/2000/svg"><path d="M16 64v384h480V64Zm304 32v320H192V96ZM48 96h112v320H48Zm416 320H352V96h112Z"/></svg>

<svg xmlns="http://www.w3.org/2000/svg" viewBox="0 0 512 512">
  <path fill="var(--ci-primary-color, currentColor)" d="M16,64V448H496V64ZM320,96V416H192V96ZM48,96H160V416H48ZM464,416H352V96H464Z" class="ci-primary"/>
</svg>
